Newaita-dark/actions/scalable/mail-message-new.svg

<?xml version="1.0" encoding="UTF-8"?>
<svg xmlns="http://www.w3.org/2000/svg" xmlns:xlink="http://www.w3.org/1999/xlink" width="512pt" height="512pt" viewBox="0 0 512 512" version="1.1">
<g id="surface1">
<path style=" stroke:none;fill-rule:nonzero;fill:rgb(74.117649%,74.117649%,74.117649%);fill-opacity:1;" d="M 63.507812 67.507812 C 40.050781 67.507812 21.167969 86.386719 21.167969 109.84375 L 21.167969 416.789062 C 21.167969 440.246094 40.050781 459.125 63.507812 459.125 L 306.945312 459.125 L 306.945312 427.375 L 74.089844 427.375 C 62.363281 427.375 52.921875 417.933594 52.921875 406.207031 L 52.921875 123.789062 L 241.835938 292.816406 C 248.777344 299.023438 259.273438 299.023438 266.210938 292.816406 L 455.125 123.789062 L 455.125 279.191406 L 486.878906 279.191406 L 486.878906 109.84375 C 486.878906 86.386719 467.996094 67.507812 444.542969 67.507812 Z M 80.335938 99.257812 L 427.714844 99.257812 L 254.023438 254.664062 Z M 80.335938 99.257812 "/>
<path style=" stroke:none;fill-rule:nonzero;fill:rgb(14.901961%,65.098041%,60.392159%);fill-opacity:1;" d="M 333.40625 358.574219 L 471.003906 358.574219 C 479.773438 358.574219 486.878906 365.070312 486.878906 373.085938 L 486.878906 375.820312 C 486.878906 383.832031 479.773438 390.328125 471.003906 390.328125 L 333.40625 390.328125 C 324.636719 390.328125 317.53125 383.832031 317.53125 375.820312 L 317.53125 373.085938 C 317.53125 365.070312 324.636719 358.574219 333.40625 358.574219 Z M 333.40625 358.574219 "/>
<path style=" stroke:none;fill-rule:nonzero;fill:rgb(14.901961%,65.098041%,60.392159%);fill-opacity:1;" d="M 418.082031 305.652344 L 418.082031 443.25 C 418.082031 452.019531 411.585938 459.128906 403.574219 459.128906 L 400.835938 459.128906 C 392.824219 459.128906 386.328125 452.019531 386.328125 443.25 L 386.328125 305.652344 C 386.328125 296.886719 392.824219 289.777344 400.835938 289.777344 L 403.574219 289.777344 C 411.585938 289.777344 418.082031 296.886719 418.082031 305.652344 Z M 418.082031 305.652344 "/>
</g>
</svg>

<svg xmlns="http://www.w3.org/2000/svg" width="512pt" height="512pt" viewBox="0 0 512 512"><path d="M63.508 67.508c-23.457 0-42.34 18.879-42.34 42.336v306.945c0 23.457 18.883 42.336 42.34 42.336h243.437v-31.75H74.09a21.122 21.122 0 0 1-21.168-21.168V123.789l188.914 169.027c6.941 6.207 17.437 6.207 24.375 0L455.125 123.79v155.402h31.754V109.844c0-23.457-18.883-42.336-42.336-42.336zm16.828 31.75h347.379L254.023 254.664zm0 0" fill="#bdbdbd"/><path d="M333.406 358.574h137.598c8.77 0 15.875 6.496 15.875 14.512v2.734c0 8.012-7.106 14.508-15.875 14.508H333.406c-8.77 0-15.875-6.496-15.875-14.508v-2.734c0-8.016 7.106-14.512 15.875-14.512zm0 0" fill="#26a69a"/><path d="M418.082 305.652V443.25c0 8.77-6.496 15.879-14.508 15.879h-2.738c-8.012 0-14.508-7.11-14.508-15.879V305.652c0-8.765 6.496-15.875 14.508-15.875h2.738c8.012 0 14.508 7.11 14.508 15.875zm0 0" fill="#26a69a"/></svg>
